!!!COM: Robert Schumann
!!!CNT: Deutscher
!!!TXO: Deutsche 
!!!OTL: Am leuchtenden Sommermorgen
!!!OPR: Dichterliebe
!!!OPS: Opus 48
!!!ONM: No. 12
!!!LYR: Heine
!!!ENC: Brian Bice
!!!YOR: Sa2mtliche Lieder, vol. 1, C.F. Peters
!!!ODT: 1840/
!!NB: Vocal melody and text only encoded.
**kern	**silbe
*clefG2	*
*k[b-e-]	*
*M6/8	*
=2	=2
4r	.
8r	.
4r	.
{8f	{Am
=3	=3
8.b-	leuch-
16b-	-ten-
8b-	-den
4dd	Som-
8b-	-mer-
=4	=4
8a	-mor-
8g}	-gen}
8r	.
4r	.
8r	.
=5	=5
{8g	{geh'
8g	ich
8g	im
8.a	Gar-
16g	-ten
8a	her-
=6	=6
4b-}	-um.}
8r	.
4r	.
8r	.
=7	=7
4r	.
8r	.
4r	.
{8f	{Es
=8	=8
8.b-	flu2-
16b-	-stern
8b-	und
8.b-	spre-
16cc-	-chen
8dd-	die
=9	=9
4.dd-	Blu-
4.cc-}	-men,}
=10	=10
{8b-	{ich
8.b-	a-
16b-	-ber
[4ccn	wand-
16ccn]	|
16b-	-le
=11	=11
4.b-}	stumm.}
4r	.
8r	.
=12	=12
4r	.
8r	.
4r	.
{8f	{Es
=13	=13
8.b-	flu2-
16b-	-stern
8b-	und
8.dd	spre-
16dd	-chen
8b-	die
=14	=14
8a	Blu-
8g}	-men,}
8r	.
4r	.
{8g	{und
=15	=15
4g	schau'n
8g	mit-
8.a	-lei-
16g	-dig
8a	mich
=16	=16
4.b-}	an:}
4r	.
8r	.
=17	=17
{8bn	{Sei
8bn	uns-
8bn	-rer
8.dd	Schwe-
16dd	-ster
8bn	nicht
=18	=18
4.a	bo2-
4cc}	-se,}
{8cc	{du
=19	=19
8.b-	trau-
16b-	-ri-
8b-	-ger,
[4dd-	blas-
16dd-]	|
16cc	-ser
=20	=20
4.cc}	Mann.}
4r	.
8r	.
*-	*-
